text-shadow.svg

<svg fill="currentColor" viewBox="0 0 24 24"><path d="M3 3h13v3h-5v12H8V6H3zm9 4h2v2h-2zm3 0h2v2h-2zm3 0h2v2h-2zm-6 3h2v2h-2zm0 3h2v2h-2zm0 3h2v2h-2zm0 3h2v2h-2z"/></svg>

<svg  viewBox="0 0 24 24" fill="currentColor"><path  d="M3,3H16V6H11V18H8V6H3V3M12,7H14V9H12V7M15,7H17V9H15V7M18,7H20V9H18V7M12,10H14V12H12V10M12,13H14V15H12V13M12,16H14V18H12V16M12,19H14V21H12V19Z"/></svg>
